X: 15236
T: Girl I Left Behind Me, The
R: polka
M: 2/4
K: Gmajor
|:g/f/|ec B>A|BG E>F|G>G G/A/B/c/|d2 dg/f/|
ec B>A|BG E>G|FA DE/F/|G>A G:|
|:G/A/|Bd e>f|g>d BG/A/|Bd ef|g2 fg/f/|
ec BA|B>G EF/G/|FA DE/F/|G>A G:|

